public/logos/carusel2/SHEIN9.svg

<svg width="530" height="110" viewBox="0 0 106 22" xmlns="http://www.w3.org/2000/svg">
<path d="M16.5 15.95C16.5 16.775 16.3167 17.5083 15.95 18.15C15.5833 18.8833 15.0333 19.4333 14.3917 19.9833C13.75 20.5333 12.925 20.9917 12.0083 21.2667C11.0917 21.5417 10.0833 21.725 8.98333 21.725C7.975 21.725 7.05833 21.6333 6.325 21.5417C5.5 21.45 4.76667 21.2667 4.03333 21.0833C3.3 20.9 2.65833 20.5333 2.01667 20.2583C1.375 19.8917 0.733333 19.4333 0 18.975L3.20833 16.1333C4.125 16.8667 5.04167 17.325 5.95833 17.6C6.875 17.875 7.79167 18.0583 8.8 18.0583C9.25833 18.0583 9.625 17.9667 9.99167 17.875C10.3583 17.7833 10.725 17.6 11 17.4167C11.275 17.2333 11.4583 16.9583 11.6417 16.775C11.825 16.5 11.9167 16.225 11.9167 15.95C11.9167 15.5833 11.825 15.3083 11.7333 15.0333C11.6417 14.7583 11.3667 14.4833 11 14.3C10.6333 14.025 10.175 13.8417 9.53333 13.5667C8.89167 13.2917 8.15833 13.0167 7.15 12.7417C6.325 12.4667 5.5 12.1917 4.675 11.825C3.85 11.4583 3.20833 11 2.65833 10.5417C2.10833 10.0833 1.55833 9.44167 1.28333 8.8C0.825 7.975 0.641667 7.15 0.641667 6.23333C0.641667 5.31667 0.825 4.49167 1.19167 3.75833C1.55833 3.025 2.10833 2.38333 2.84167 1.83333C3.48333 1.375 4.30833 0.916667 5.225 0.641667C6.14167 0.366667 7.15 0.183333 8.15833 0.183333C9.9 0.183333 11.4583 0.366667 12.65 0.825C13.8417 1.28333 14.9417 1.83333 15.8583 2.65833L12.7417 5.5C12.1917 5.04167 11.55 4.58333 10.8167 4.30833C10.0833 4.03333 9.25833 3.94167 8.34167 3.94167C7.88333 3.94167 7.51667 4.03333 7.15 4.125C6.69167 4.21667 6.41667 4.4 6.14167 4.58333C5.86667 4.76667 5.68333 5.04167 5.5 5.31667C5.31667 5.59167 5.225 5.86667 5.225 6.14167C5.225 6.50833 5.31667 6.78333 5.5 7.05833C5.59167 7.33333 5.86667 7.51667 6.23333 7.79167C6.6 8.06667 7.05833 8.25 7.7 8.525C8.34167 8.8 9.075 9.075 9.99167 9.35C11.1833 9.71667 12.1 10.0833 12.925 10.5417C13.75 11 14.3917 11.4583 14.9417 12.0083C15.4917 12.5583 15.8583 13.1083 16.1333 13.75C16.4083 14.3917 16.5 15.125 16.5 15.95ZM42.2583 21.45H37.7667V12.2833H29.425V21.45H24.9333V0.641667H29.425V8.89167H37.7667V0.641667H42.2583V21.45ZM67.1 21.45H50.6917V0.641667H67.1V3.94167H55.0917V8.89167H66.1833V12.1H55.0917V17.7833H67.1V21.45ZM80.3917 21.45H75.9V0.641667H80.3917V21.45ZM105.783 0.641667V22L93.225 11.0917V21.2667H88.825V0L101.383 10.9083V0.641667H105.783Z" fill="#000"/>
</svg>

<svg xmlns="http://www.w3.org/2000/svg" viewBox="0 0 106 22"><path d="M16.5 15.95q0 1.237-.55 2.2c-.367.733-.917 1.283-1.558 1.833a6.6 6.6 0 0 1-2.384 1.284c-.916.275-1.925.458-3.025.458-1.008 0-1.925-.092-2.658-.183-.825-.092-1.558-.275-2.292-.459-.733-.183-1.375-.55-2.016-.825-.642-.366-1.284-.825-2.017-1.283l3.208-2.842c.917.734 1.834 1.192 2.75 1.467.917.275 1.834.458 2.842.458.458 0 .825-.091 1.192-.183A3.4 3.4 0 0 0 11 17.417c.275-.184.458-.459.642-.642q.275-.413.275-.825c0-.367-.092-.642-.184-.917-.091-.275-.366-.55-.733-.733-.367-.275-.825-.458-1.467-.733a17.5 17.5 0 0 0-2.383-.825c-.825-.275-1.65-.55-2.475-.917S3.208 11 2.658 10.542c-.55-.459-1.1-1.1-1.375-1.742C.825 7.975.642 7.15.642 6.233q0-1.374.55-2.475.549-1.1 1.65-1.925A8.3 8.3 0 0 1 5.225.642C6.142.367 7.15.183 8.158.183c1.742 0 3.3.184 4.492.642s2.292 1.008 3.208 1.833L12.742 5.5c-.55-.458-1.192-.917-1.925-1.192s-1.559-.366-2.475-.366c-.459 0-.825.091-1.192.183-.458.092-.733.275-1.008.458-.275.184-.459.459-.642.734q-.275.412-.275.825c0 .366.092.641.275.916.092.275.367.459.733.734.367.275.825.458 1.467.733s1.375.55 2.292.825c1.191.367 2.108.733 2.933 1.192s1.467.916 2.017 1.466.916 1.1 1.191 1.742.367 1.375.367 2.2m25.758 5.5h-4.491v-9.167h-8.342v9.167h-4.492V.642h4.492v8.25h8.342V.642h4.491zm24.842 0H50.692V.642H67.1v3.3H55.092v4.95h11.091V12.1H55.092v5.683H67.1zm13.292 0H75.9V.642h4.492zM105.783.642V22L93.225 11.092v10.175h-4.4V0l12.558 10.908V.642z"/></svg>
